X: 06063
T: MONKEY MUSH
C: Bob McQuillen 21 Aug 81
B: Bob's Note Book 6 #63
%R: reel
Z: 2021 John Chambers <jc:trillian.mit.edu>
M: C
L: 1/8
K: Am
ag \
| ecde cAcd | edcA GEGA | cdeg agea | gede cAag \
| ecde cAcd | edcA GEGA | cdeg agea | gede cA |]
AB \
| cBAG FAEc | cBAG EGDB | cBAG FAEA | FDDE CA,A,B \
| cBAG FAEc | cBAG EGDB | cBAG FAEA | FDDE CA, |]
AB \
| c2cA d2de | c2cA B2cB | ABcd eage | dced cAAB \
| c2cA dcde | cdcA B2cB | ABcd eccd | eaag a2 |]
%%begintext align
%% Money Musk was never
%% like this, but sometime when you're playing it, you
%% can try switching off onto this and see if it does anything
%% for you (besides causing reugurgitation, that is..)
%%endtext

%%sep 1 1 500

%%sep 1 1 500

